X:1
T:Come Again
T:Ayres and Lute Songs XVII
T:John Dowland
T:Pubblico dominio Scritto con MuseScore, un software libero e gratuito: http://musescore.org/it 
T:Pubblico dominio Scritto con MuseScore, un software libero e gratuito: http://musescore.org/it 
Z:Pubblico dominio
Z:Scritto con MuseScore, un software libero e gratuito: http://musescore.org/it
%%score [ 1 2 3 4 ]
L:1/8
M:4/2
K:C
V:1 treble nm="Soprano"
V:2 treble nm="Contralto"
V:3 treble-8 nm="Tenore"
V:4 bass nm="Basso"
V:1
 z4 B3 c d8 | z4 d4 e4 d4 | c6 c2 B8 | z4 d4 d4 c4 | B4 B4 A8 | z4 A4 c4 G4 | A6 A2 A8 |: %7
w: Come a\- gain:|sweet love doth|now in\- vite|thy gra\- ces|that re\- frain,|to do me|due de\- light,|
[M:4/4] z2 D2 G4 | z2 E2 A4 | z2 ^F2 c4 | z2 G2 c4 |[M:6/2] z2 A2 d16- d4 | %12
w: to see,|to hear,|to touch,|to kiss,|to die, *|
[M:4/2] z2 d2 c2 B2 A4 z2 B2 |[M:6/2] A2 G2 G6 ^FE F4 G8!D.C.! :| %14
w: with thee a\- gain in|swee\- test sym\- pa _ _ thy.|
V:2
 G6 G2 G8 | z4 B4 A2 G2 G4- | G4 ^F4 G8 | z4 G4 G4 E3 ^F | G6 G2 ^F8 | z4 ^F4 G6 D2 | E6 E2 ^F8 |: %7
w: Come a\- gain!|sweet love doth now|* in\- vite|thy gra\- ces *|that re\- frain,|to do me|due de\- light,|
[M:4/4] D8 | E4 z2 E2 | ^F4 z2 F2 | G4 z2 G2 |[M:6/2] A4 z2 A2 B12 A4 |[M:4/2] G3 F E2 G2 ^F6 G2 | %13
w: to|see, to|hear, to|touch, to|kiss, to die, *|with thee * a\- gain in|
[M:6/2] E4 B,2 C2 D6 C2 B,8 :| %14
w: swee \- test sym\- pa\- thy.|
V:3
 d6 G2 B8 | z4 B4 B4 d4 | e6 dc d8 | z4 B4 B4 A4 | G4 d4 d8 | z4 d4 d6 d2 | d4 ^c4 d8 |: %7
w: Come a\- gain!|sweet love doth|now in- * vite|thy gra\- ces|that re\- frain,|to do me|due de\- light,|
[M:4/4] G8 | G4 z2 c2 | A4 z2 d2 | B4 z2 e2 |[M:6/2] d4 z2 c2 B2 G2 G2 A2 B4 c4 | %12
w: to|see, to|hear, to|touch, to|kiss, to die, to die with thee a\-|
[M:4/2] d4 z2 G2 d6 d2 |[M:6/2] c2 B2 B2 AG A6 A2 G8 :| %14
w: gain with thee a\-|gain in swee\- test * sym\- pa\- thy.|
V:4
 G,4 G,4 G,8 | z4 G,,4 C,4 B,,4 | A,,6 A,,2 G,,8 | z4 G,,4 G,,4 A,,4 | B,,4 G,,4 D,8 | %5
w: Come a\- gain!|sweet love doth|now in\- vite|thy gra\- ces|that re\- frain,|
 z4 D,4 G,,4 B,,4 | A,,6 A,,2 D,8 |:[M:4/4] B,,8 | C,6 C,2 | D,6 D,2 | E,6 D,2 | %11
w: to do me|due de\- light,|to|see, to|hear, to|touch, to|
[M:6/2] ^F,6 F,2 G,4 G,,4 G,,4 A,,4 |[M:4/2] B,,4 C,4 D,4 B,,4 |[M:6/2] C,2 D,2 E,4 D,6 D,2 G,,8 :| %14
w: kiss, to die, to die with|thee a\- gain in|swee \- test sym\- pa\- thy.|

